X:1
T: Rid'ee La
C: Trad
R: Polka
G: Dance Tune
M: 2/2
L: 1/8
K: Em
Z: ABC transcription by Verge Roller
r: 32
|: D2 | "Em" E4 B4 | "Am" A2 c2 "Em" B4 | "B7" A3 B A2 F2 | "Em" G2 A2 B2 G2 |
"Em" E4 B4 | "Am" A2 c2 "Em" B4 | "B7" A3 B A2 F2 | "Em" G2 F2 E2 :|
|: D2 | "Em" E4 G4 | "Em" G2 E2 "B7" F4 | "B7" F3 G A2 F2 | "Em" G2 A2 B2 G2 |
"Em" E4 G4 | "Em" G2 E2 "B7" F4 |  "B7" F3 G A2 B2 | "Em" G2 F2 E2 :|
